resources/svg/mov-o.svg

<svg xmlns="http://www.w3.org/2000/svg" viewBox="0 0 15 15" fill="none"><path d="M13.5 3.5H14V3.29289L13.8536 3.14645L13.5 3.5ZM10.5 0.5L10.8536 0.146447L10.7071 0H10.5V0.5ZM2.5 6.5L2.85355 6.14645C2.71055 6.00345 2.4955 5.96067 2.30866 6.03806C2.12182 6.11545 2 6.29777 2 6.5H2.5ZM3.5 7.5L3.14645 7.85355L3.5 8.20711L3.85355 7.85355L3.5 7.5ZM4.5 6.5H5C5 6.29777 4.87818 6.11545 4.69134 6.03806C4.5045 5.96067 4.28945 6.00345 4.14645 6.14645L4.5 6.5ZM10.5 9.5H10V9.70711L10.1464 9.85355L10.5 9.5ZM11.5 10.5L11.1464 10.8536C11.3417 11.0488 11.6583 11.0488 11.8536 10.8536L11.5 10.5ZM12.5 9.5L12.8536 9.85355L13 9.70711V9.5H12.5ZM2 5V1.5H1V5H2ZM13 3.5V5H14V3.5H13ZM2.5 1H10.5V0H2.5V1ZM10.1464 0.853553L13.1464 3.85355L13.8536 3.14645L10.8536 0.146447L10.1464 0.853553ZM2 1.5C2 1.22386 2.22386 1 2.5 1V0C1.67157 0 1 0.671573 1 1.5H2ZM1 12V13.5H2V12H1ZM2.5 15H12.5V14H2.5V15ZM14 13.5V12H13V13.5H14ZM12.5 15C13.3284 15 14 14.3284 14 13.5H13C13 13.7761 12.7761 14 12.5 14V15ZM1 13.5C1 14.3284 1.67157 15 2.5 15V14C2.22386 14 2 13.7761 2 13.5H1ZM3 11V6.5H2V11H3ZM2.14645 6.85355L3.14645 7.85355L3.85355 7.14645L2.85355 6.14645L2.14645 6.85355ZM3.85355 7.85355L4.85355 6.85355L4.14645 6.14645L3.14645 7.14645L3.85355 7.85355ZM4 6.5V11H5V6.5H4ZM8 7.5V9.5H9V7.5H8ZM7 9.5V7.5H6V9.5H7ZM7.5 10C7.22386 10 7 9.77614 7 9.5H6C6 10.3284 6.67157 11 7.5 11V10ZM8 9.5C8 9.77614 7.77614 10 7.5 10V11C8.32843 11 9 10.3284 9 9.5H8ZM7.5 7C7.77614 7 8 7.22386 8 7.5H9C9 6.67157 8.32843 6 7.5 6V7ZM7.5 6C6.67157 6 6 6.67157 6 7.5H7C7 7.22386 7.22386 7 7.5 7V6ZM10 6V9.5H11V6H10ZM10.1464 9.85355L11.1464 10.8536L11.8536 10.1464L10.8536 9.14645L10.1464 9.85355ZM11.8536 10.8536L12.8536 9.85355L12.1464 9.14645L11.1464 10.1464L11.8536 10.8536ZM13 9.5V6H12V9.5H13Z" fill="black"/></svg>

<svg xmlns="http://www.w3.org/2000/svg" viewBox="0 0 15 15" fill="none"><path d="M13.5 3.5h.5v-.207l-.146-.147-.354.354zm-3-3l.354-.354L10.707 0H10.5v.5zm-8 6l.354-.354A.5.5 0 002 6.5h.5zm1 1l-.354.354.354.353.354-.353L3.5 7.5zm1-1H5a.5.5 0 00-.854-.354L4.5 6.5zm6 3H10v.207l.146.147.354-.354zm1 1l-.354.354a.5.5 0 00.708 0L11.5 10.5zm1-1l.354.354.146-.147V9.5h-.5zM2 5V1.5H1V5h1zm11-1.5V5h1V3.5h-1zM2.5 1h8V0h-8v1zm7.646-.146l3 3 .708-.708-3-3-.708.708zM2 1.5a.5.5 0 01.5-.5V0A1.5 1.5 0 001 1.5h1zM1 12v1.5h1V12H1zm1.5 3h10v-1h-10v1zM14 13.5V12h-1v1.5h1zM12.5 15a1.5 1.5 0 001.5-1.5h-1a.5.5 0 01-.5.5v1zM1 13.5A1.5 1.5 0 002.5 15v-1a.5.5 0 01-.5-.5H1zM3 11V6.5H2V11h1zm-.854-4.146l1 1 .708-.708-1-1-.708.708zm1.708 1l1-1-.708-.708-1 1 .708.708zM4 6.5V11h1V6.5H4zm4 1v2h1v-2H8zm-1 2v-2H6v2h1zm.5.5a.5.5 0 01-.5-.5H6A1.5 1.5 0 007.5 11v-1zm.5-.5a.5.5 0 01-.5.5v1A1.5 1.5 0 009 9.5H8zM7.5 7a.5.5 0 01.5.5h1A1.5 1.5 0 007.5 6v1zm0-1A1.5 1.5 0 006 7.5h1a.5.5 0 01.5-.5V6zM10 6v3.5h1V6h-1zm.146 3.854l1 1 .708-.708-1-1-.708.708zm1.708 1l1-1-.708-.708-1 1 .708.708zM13 9.5V6h-1v3.5h1z" fill="currentColor"/></svg>
